svgs/sharp-light/square-k.svg

<svg xmlns="http://www.w3.org/2000/svg" viewBox="0 0 448 512"><!--! Font Awesome Pro 6.6.0 by @fontawesome - https://fontawesome.com License - https://fontawesome.com/license (Commercial License) Copyright 2024 Fonticons, Inc. --><path d="M32 64l0 384 384 0 0-384L32 64zM0 32l32 0 384 0 32 0 0 32 0 384 0 32-32 0L32 480 0 480l0-32L0 64 0 32zm128 96l32 0 0 16 0 115.7L290.9 128l45.1 0L226.4 238.3 328.3 384l-39.1 0L203.4 261.4 160 305.1l0 62.9 0 16-32 0 0-16 0-69.5L128 144l0-16z"/></svg>

<svg xmlns="http://www.w3.org/2000/svg" viewBox="0 0 448 512"><!--! Font Awesome Pro 6.5.2 by @fontawesome - https://fontawesome.com License - https://fontawesome.com/license (Commercial License) Copyright 2024 Fonticons, Inc. --><path d="M32 64V448H416V64H32zM0 32H32 416h32V64 448v32H416 32 0V448 64 32zm128 96h32v16V259.7L290.9 128h45.1L226.4 238.3 328.3 384H289.3L203.4 261.4 160 305.1V368v16H128V368 298.5 144 128z"/></svg>
